public/static/illustrations/pay.svg

<?xml version="1.0" encoding="UTF-8"?>
<svg width="246px" height="212px" viewBox="0 0 246 212" version="1.1" xmlns="http://www.w3.org/2000/svg" xmlns:xlink="http://www.w3.org/1999/xlink">
    <!-- Generator: Sketch 44.1 (41455) - http://www.bohemiancoding.com/sketch -->
    <title>Pay</title>
    <desc>Created with Sketch.</desc>
    <defs>
        <polygon id="path-1" points="0.0289301934 0.0703746562 0.0289301934 156.656395 197.497752 156.656395 197.497752 0.0703746562"></polygon>
        <linearGradient x1="72.6868433%" y1="100%" x2="50%" y2="0%" id="linearGradient-3">
            <stop stop-color="#4194FF" offset="0%"></stop>
            <stop stop-color="#175FE1" offset="100%"></stop>
        </linearGradient>
        <rect id="path-4" x="50.6896552" y="60.8275862" width="109.344828" height="89.0689655" rx="4"></rect>
        <filter x="-33.8%" y="-39.3%" width="167.7%" height="183.1%" filterUnits="objectBoundingBox" id="filter-5">
            <feOffset dx="0" dy="2" in="SourceAlpha" result="shadowOffsetOuter1"></feOffset>
            <feGaussianBlur stdDeviation="12" in="shadowOffsetOuter1" result="shadowBlurOuter1"></feGaussianBlur>
            <feColorMatrix values="0 0 0 0 0.0901960784   0 0 0 0 0.321568627   0 0 0 0 0.870588235  0 0 0 0.6 0" type="matrix" in="shadowBlurOuter1"></feColorMatrix>
        </filter>
        <linearGradient x1="32.2334521%" y1="13.1760095%" x2="100%" y2="63.6895623%" id="linearGradient-6">
            <stop stop-color="#4CC9FF" offset="0%"></stop>
            <stop stop-color="#82FFF5" offset="100%"></stop>
        </linearGradient>
        <rect id="path-7" x="74.5862069" y="122.37931" width="62.2758621" height="13.7586207" rx="3"></rect>
        <filter x="-35.3%" y="-123.6%" width="170.7%" height="419.8%" filterUnits="objectBoundingBox" id="filter-8">
            <feOffset dx="0" dy="5" in="SourceAlpha" result="shadowOffsetOuter1"></feOffset>
            <feGaussianBlur stdDeviation="6.5" in="shadowOffsetOuter1" result="shadowBlurOuter1"></feGaussianBlur>
            <feColorMatrix values="0 0 0 0 0.0901960784   0 0 0 0 0.321568627   0 0 0 0 0.870588235  0 0 0 0.6 0" type="matrix" in="shadowBlurOuter1"></feColorMatrix>
        </filter>
        <linearGradient x1="50%" y1="0%" x2="33.9682971%" y2="92.5266392%" id="linearGradient-9">
            <stop stop-color="#F3F8FA" offset="0%"></stop>
            <stop stop-color="#EAF0F4" offset="100%"></stop>
        </linearGradient>
        <linearGradient x1="50%" y1="0%" x2="50%" y2="100%" id="linearGradient-10">
            <stop stop-color="#00FF70" offset="0%"></stop>
            <stop stop-color="#00C7BA" offset="100%"></stop>
        </linearGradient>
    </defs>
    <g id="Homepage" stroke="none" stroke-width="1" fill="none" fill-rule="evenodd">
        <g id="IOTA-Homepage--Desktop-HD-" transform="translate(-557.000000, -913.000000)">
            <g id="//Content" transform="translate(-514.000000, 799.000000)">
                <g id="How-it-works" transform="translate(624.000000, 0.000000)">
                    <g id="3-columns" transform="translate(0.000000, 115.000000)">
                        <g id="2" transform="translate(390.000000, 0.000000)">
                            <g id="Pay" transform="translate(57.000000, 0.000000)">
                                <rect id="Rectangle-8" fill="#FFFFFF" x="0" y="0" width="246" height="210"></rect>
                                <g id="2" transform="translate(18.000000, 0.000000)">
                                    <g id="search" transform="translate(6.517241, 26.793103)">
                                        <g id="Group-3">
                                            <mask id="mask-2" fill="white">
                                                <use xlink:href="#path-1"></use>
                                            </mask>
                                            <g id="Clip-2"></g>
                                            <path d="M187.281536,0.0703746562 L10.2162156,0.0703746562 C4.57289924,0.0703746562 0,4.6418352 0,10.2828941 L0,146.443875 C0,152.083006 4.57289924,156.656395 10.2162156,156.656395 L187.281536,156.656395 C192.922441,156.656395 197.497752,152.083006 197.497752,146.443875 L197.497752,10.2828941 C197.497752,4.6418352 192.922441,0.0703746562 187.281536,0.0703746562 Z M190.687102,146.443875 C190.687102,148.32471 189.161034,149.847888 187.281536,149.847888 L10.2162156,149.847888 C8.33430656,149.847888 6.81064971,148.32471 6.81064971,146.443875 L6.81064971,23.89798 C6.81064971,22.0190731 8.33430656,20.4939675 10.2162156,20.4939675 L187.281536,20.4939675 C189.161034,20.4939675 190.687102,22.0190731 190.687102,23.89798 L190.687102,146.443875 Z" id="Fill-1" fill="#CFE7F1"></path>
                                            <rect id="Rectangle-3" fill="#EDF3F7" x="0" y="0" width="197.689655" height="156.413793" rx="2"></rect>
                                            <rect id="Rectangle-3" fill="#FFFFFF" x="7.24137931" y="15.9310345" width="183.206897" height="133.241379" rx="2"></rect>
                                            <rect id="Rectangle-5" fill="#ECF2F6" x="15.9310345" y="27.5172414" width="39.8275862" height="39.8275862" rx="4"></rect>
                                            <rect id="Rectangle-5" fill="#ECF2F6" x="15.9310345" y="72.4137931" width="39.8275862" height="39.8275862" rx="4"></rect>
                                            <rect id="Rectangle-5" fill="#ECF2F6" x="15.9310345" y="117.310345" width="39.8275862" height="21.7241379" rx="4"></rect>
                                            <rect id="Rectangle-5" fill="#ECF2F6" x="60.8275862" y="27.5172414" width="57.2068966" height="70.2413793" rx="4"></rect>
                                            <rect id="Rectangle-5" fill="#ECF2F6" x="60.8275862" y="102.827586" width="57.2068966" height="36.2068966" rx="4"></rect>
                                            <rect id="Rectangle-5" fill="#ECF2F6" x="123.103448" y="27.5172414" width="57.2068966" height="111.517241" rx="4"></rect>
                                        </g>
                                        <g id="Group-47" transform="translate(6.517241, 5.793103)">
                                            <path d="M4.59674343,2.43659883 C4.59674343,3.65267403 3.60959985,4.63825946 2.39345394,4.63825946 C1.17574806,4.63825946 0.189852446,3.65267403 0.189852446,2.43659883 C0.189852446,1.21958796 1.17574806,0.23400252 2.39345394,0.23400252 C3.60959985,0.23400252 4.59674343,1.21958796 4.59674343,2.43659883 Z" id="Fill-4" fill="#9BBBCD"></path>
                                            <path d="M11.2059879,2.43659883 C11.2059879,3.65267403 10.2197803,4.63825946 9.00238645,4.63825946 C7.78624053,4.63825946 6.79909695,3.65267403 6.79909695,2.43659883 C6.79909695,1.21958796 7.78624053,0.23400252 9.00238645,0.23400252 C10.2197803,0.23400252 11.2059879,1.21958796 11.2059879,2.43659883 Z" id="Fill-5" fill="#9BBBCD"></path>
                                            <path d="M17.8161684,2.43659883 C17.8161684,3.65267403 16.8290248,4.63825946 15.6128789,4.63825946 C14.395173,4.63825946 13.4092774,3.65267403 13.4092774,2.43659883 C13.4092774,1.21958796 14.395173,0.23400252 15.6128789,0.23400252 C16.8290248,0.23400252 17.8161684,1.21958796 17.8161684,2.43659883 Z" id="Fill-6" fill="#9BBBCD"></path>
                                            <path d="M26.6287024,4.63825946 L24.4254129,4.63825946 C23.208955,4.63825946 22.2218114,3.65267403 22.2218114,2.43659883 C22.2218114,1.21958796 23.208955,0.23400252 24.4254129,0.23400252 L26.6287024,0.23400252 C27.8464083,0.23400252 28.8323039,1.21958796 28.8323039,2.43659883 C28.8323039,3.65267403 27.8464083,4.63825946 26.6287024,4.63825946 Z" id="Fill-7" fill="#CFE7F1"></path>
                                            <path d="M35.4424844,4.63825946 L33.2391949,4.63825946 C32.022737,4.63825946 31.0355934,3.65267403 31.0355934,2.43659883 C31.0355934,1.21958796 32.022737,0.23400252 33.2391949,0.23400252 L35.4424844,0.23400252 C36.6601903,0.23400252 37.6460859,1.21958796 37.6460859,2.43659883 C37.6460859,3.65267403 36.6601903,4.63825946 35.4424844,4.63825946 Z" id="Fill-8" fill="#CFE7F1"></path>
                                            <path d="M172.599626,4.63825946 L170.396336,4.63825946 C169.179878,4.63825946 168.192735,3.65267403 168.192735,2.43659883 C168.192735,1.21958796 169.179878,0.23400252 170.396336,0.23400252 L172.599626,0.23400252 C173.81702,0.23400252 174.803227,1.21958796 174.803227,2.43659883 C174.803227,3.65267403 173.81702,4.63825946 172.599626,4.63825946 Z" id="Fill-9" fill="#CFE7F1"></path>
                                            <path d="M181.413408,4.63825946 L179.210118,4.63825946 C177.99366,4.63825946 177.006517,3.65267403 177.006517,2.43659883 C177.006517,1.21958796 177.99366,0.23400252 179.210118,0.23400252 L181.413408,0.23400252 C182.629554,0.23400252 183.617009,1.21958796 183.617009,2.43659883 C183.617009,3.65267403 182.629554,4.63825946 181.413408,4.63825946 Z" id="Fill-10" fill="#CFE7F1"></path>
                                            <rect id="Rectangle-4" fill="#FFFFFF" x="43.4482759" y="0" width="114.413793" height="4.34482759" rx="2.17241379"></rect>
                                        </g>
                                    </g>
                                    <circle id="Oval-8" stroke="#A7B8C1" stroke-width="2" opacity="0.300000012" cx="105" cy="105" r="84"></circle>
                                    <circle id="Oval-8" stroke="#A7B8C1" stroke-width="2" opacity="0.599999964" cx="105.362069" cy="105.362069" r="64.8103448"></circle>
                                    <circle id="Oval-8" stroke="#A7B8C1" opacity="0.200000018" cx="105" cy="105" r="105"></circle>
                                    <g id="Rectangle-6">
                                        <use fill="black" fill-opacity="1" filter="url(#filter-5)" xlink:href="#path-4"></use>
                                        <use fill="url(#linearGradient-3)" fill-rule="evenodd" xlink:href="#path-4"></use>
                                    </g>
                                    <g id="Rectangle-6">
                                        <use fill="black" fill-opacity="1" filter="url(#filter-8)" xlink:href="#path-7"></use>
                                        <use fill="url(#linearGradient-6)" fill-rule="evenodd" xlink:href="#path-7"></use>
                                    </g>
                                    <path d="M86.815296,129.62069 L125.215942,129.62069" id="Path-14" stroke="#FFFFFF" stroke-width="4" stroke-linecap="round" stroke-linejoin="round" stroke-dasharray="12,6"></path>
                                    <path d="M65.0911581,105.724138 L146.215942,105.724138" id="Path-14" stroke="#FFFFFF" stroke-width="2" stroke-linecap="round" stroke-linejoin="round" stroke-dasharray="19,4"></path>
                                    <path d="M65.0911581,112.241379 L124.491804,112.241379" id="Path-14" stroke="#FFFFFF" stroke-width="2" stroke-linecap="round" stroke-linejoin="round" stroke-dasharray="30,4"></path>
                                    <g id="padlock" transform="translate(95.586207, 70.965517)">
                                        <path d="M14.2877984,13.4644397 L14.2877984,7.42524246 C14.2877984,4.96852674 12.2638942,2.97009698 9.77586207,2.97009698 C7.28782997,2.97009698 5.26392573,4.96852674 5.26392573,7.42524246 L5.26392573,13.4644397 L2.25596817,13.4644397 L2.25596817,7.42524246 C2.25596817,3.33121127 5.62964324,0 9.77586207,0 C13.9220809,0 17.295756,3.33121127 17.295756,7.42524246 L17.295756,13.4644397 L14.2877984,13.4644397 Z" id="Combined-Shape" fill="url(#linearGradient-9)"></path>
                                        <path d="M17.295756,25.3448276 L2.25596817,25.3448276 C1.01197719,25.3448276 0,24.345588 0,23.1172548 L0,14.2069639 C0,12.9786308 1.01197719,11.9793912 2.25596817,11.9793912 L17.295756,11.9793912 C18.5397469,11.9793912 19.5517241,12.9786308 19.5517241,14.2069639 L19.5517241,23.1172548 C19.5517241,24.345588 18.5397469,25.3448276 17.295756,25.3448276" id="Fill-3" fill="url(#linearGradient-10)"></path>
                                        <path d="M17.295756,11.9793912 L9.77586207,11.9793912 L9.77586207,25.3448276 L17.295756,25.3448276 C18.5397469,25.3448276 19.5517241,24.345588 19.5517241,23.1172548 L19.5517241,14.2069639 C19.5517241,12.9786308 18.5397469,11.9793912 17.295756,11.9793912" id="Fill-4" fill="url(#linearGradient-10)"></path>
                                        <path d="M12.0318302,17.1770609 C12.0318302,18.144372 11.4013623,18.9608516 10.5278515,19.2683062 L10.5278515,21.6322064 C10.5278515,22.0426243 10.1915117,22.3747306 9.77586207,22.3747306 C9.36021247,22.3747306 9.02387268,22.0426243 9.02387268,21.6322064 L9.02387268,19.2683062 C8.1503618,18.9608516 7.5198939,18.144372 7.5198939,17.1770609 C7.5198939,15.9487278 8.53187109,14.9494881 9.77586207,14.9494881 C11.0198531,14.9494881 12.0318302,15.9487278 12.0318302,17.1770609 Z" id="Combined-Shape" fill="#FFFFFF"></path>
                                    </g>
                                </g>
                            </g>
                        </g>
                    </g>
                </g>
            </g>
        </g>
    </g>
</svg>

<svg width="246" height="212" xmlns="http://www.w3.org/2000/svg" xmlns:xlink="http://www.w3.org/1999/xlink"><defs><path id="a" d="M.029.07v156.586h197.469V.07z"/><linearGradient x1="72.687%" y1="100%" x2="50%" y2="0%" id="d"><stop stop-color="#4194FF" offset="0%"/><stop stop-color="#175FE1" offset="100%"/></linearGradient><rect id="c" x="50.69" y="60.828" width="109.345" height="89.069" rx="4"/><filter x="-33.8%" y="-39.3%" width="167.7%" height="183.1%" filterUnits="objectBoundingBox" id="b"><feOffset dy="2" in="SourceAlpha" result="shadowOffsetOuter1"/><feGaussianBlur stdDeviation="12" in="shadowOffsetOuter1" result="shadowBlurOuter1"/><feColorMatrix values="0 0 0 0 0.0901960784 0 0 0 0 0.321568627 0 0 0 0 0.870588235 0 0 0 0.6 0" in="shadowBlurOuter1"/></filter><linearGradient x1="32.233%" y1="13.176%" x2="100%" y2="63.69%" id="g"><stop stop-color="#4CC9FF" offset="0%"/><stop stop-color="#82FFF5" offset="100%"/></linearGradient><rect id="f" x="74.586" y="122.379" width="62.276" height="13.759" rx="3"/><filter x="-35.3%" y="-123.6%" width="170.7%" height="419.8%" filterUnits="objectBoundingBox" id="e"><feOffset dy="5" in="SourceAlpha" result="shadowOffsetOuter1"/><feGaussianBlur stdDeviation="6.5" in="shadowOffsetOuter1" result="shadowBlurOuter1"/><feColorMatrix values="0 0 0 0 0.0901960784 0 0 0 0 0.321568627 0 0 0 0 0.870588235 0 0 0 0.6 0" in="shadowBlurOuter1"/></filter><linearGradient x1="50%" y1="0%" x2="33.968%" y2="92.527%" id="h"><stop stop-color="#F3F8FA" offset="0%"/><stop stop-color="#EAF0F4" offset="100%"/></linearGradient><linearGradient x1="50%" y1="0%" x2="50%" y2="100%" id="i"><stop stop-color="#00FF70" offset="0%"/><stop stop-color="#00C7BA" offset="100%"/></linearGradient></defs><g fill="none" fill-rule="evenodd"><path fill="#FFF" d="M0 1h246v210H0z"/><g transform="translate(18 1)"><g transform="translate(6.517 26.793)"><path d="M187.282.07H10.216C4.573.07 0 4.642 0 10.283v136.16c0 5.64 4.573 10.213 10.216 10.213h177.066c5.64 0 10.216-4.573 10.216-10.212V10.283c0-5.641-4.576-10.213-10.216-10.213zm3.405 146.374a3.405 3.405 0 0 1-3.405 3.404H10.216a3.404 3.404 0 0 1-3.405-3.404V23.898a3.405 3.405 0 0 1 3.405-3.404h177.066a3.406 3.406 0 0 1 3.405 3.404v122.546z" fill="#CFE7F1"/><rect fill="#EDF3F7" width="197.69" height="156.414" rx="2"/><rect fill="#FFF" x="7.241" y="15.931" width="183.207" height="133.241" rx="2"/><rect fill="#ECF2F6" x="15.931" y="27.517" width="39.828" height="39.828" rx="4"/><rect fill="#ECF2F6" x="15.931" y="72.414" width="39.828" height="39.828" rx="4"/><rect fill="#ECF2F6" x="15.931" y="117.31" width="39.828" height="21.724" rx="4"/><rect fill="#ECF2F6" x="60.828" y="27.517" width="57.207" height="70.241" rx="4"/><rect fill="#ECF2F6" x="60.828" y="102.828" width="57.207" height="36.207" rx="4"/><rect fill="#ECF2F6" x="123.103" y="27.517" width="57.207" height="111.517" rx="4"/></g><g transform="translate(13.034 32.586)"><path d="M4.597 2.437A2.203 2.203 0 1 1 .19 2.434a2.203 2.203 0 0 1 4.406.003zM11.206 2.437A2.203 2.203 0 1 1 9.002.234c1.218 0 2.204.986 2.204 2.203zM17.816 2.437a2.203 2.203 0 1 1-4.406-.003 2.203 2.203 0 0 1 4.406.003z" fill="#9BBBCD"/><path d="M26.629 4.638h-2.204a2.203 2.203 0 1 1 0-4.404h2.204a2.202 2.202 0 1 1 0 4.404zM35.442 4.638H33.24a2.203 2.203 0 1 1 0-4.404h2.203a2.202 2.202 0 1 1 0 4.404zM172.6 4.638h-2.204a2.203 2.203 0 1 1 0-4.404h2.204a2.203 2.203 0 1 1 0 4.404zM181.413 4.638h-2.203a2.203 2.203 0 1 1 0-4.404h2.203a2.203 2.203 0 1 1 0 4.404z" fill="#CFE7F1"/><rect fill="#FFF" x="43.448" width="114.414" height="4.345" rx="2.172"/></g><circle stroke="#A7B8C1" stroke-width="2" opacity=".3" cx="105" cy="105" r="84"/><circle stroke="#A7B8C1" stroke-width="2" opacity=".6" cx="105.362" cy="105.362" r="64.81"/><circle stroke="#A7B8C1" opacity=".2" cx="105" cy="105" r="105"/><use fill="#000" filter="url(#b)" xlink:href="#c"/><use fill="url(#d)" xlink:href="#c"/><use fill="#000" filter="url(#e)" xlink:href="#f"/><use fill="url(#g)" xlink:href="#f"/><path d="M86.815 129.62h38.4" stroke="#FFF" stroke-width="4" stroke-linecap="round" stroke-linejoin="round" stroke-dasharray="12,6"/><path d="M65.091 105.724h81.125" stroke="#FFF" stroke-width="2" stroke-linecap="round" stroke-linejoin="round" stroke-dasharray="19,4"/><path d="M65.091 112.241h59.4" stroke="#FFF" stroke-width="2" stroke-linecap="round" stroke-linejoin="round" stroke-dasharray="30,4"/><g><path d="M14.288 13.464V7.425c0-2.456-2.024-4.455-4.512-4.455-2.488 0-4.512 1.999-4.512 4.455v6.04H2.256v-6.04C2.256 3.331 5.63 0 9.776 0c4.146 0 7.52 3.331 7.52 7.425v6.04h-3.008z" fill="url(#h)" transform="translate(95.586 70.966)"/><path d="M17.296 25.345H2.256c-1.244 0-2.256-1-2.256-2.228v-8.91c0-1.228 1.012-2.228 2.256-2.228h15.04c1.244 0 2.256 1 2.256 2.228v8.91c0 1.229-1.012 2.228-2.256 2.228" fill="url(#i)" transform="translate(95.586 70.966)"/><path d="M17.296 11.98h-7.52v13.365h7.52c1.244 0 2.256-1 2.256-2.228v-8.91c0-1.228-1.012-2.228-2.256-2.228" fill="url(#i)" transform="translate(95.586 70.966)"/><path d="M107.618 88.143c0 .967-.63 1.783-1.504 2.09v2.365c0 .41-.336.742-.752.742a.747.747 0 0 1-.752-.742v-2.364c-.873-.308-1.504-1.124-1.504-2.091 0-1.229 1.012-2.228 2.256-2.228 1.244 0 2.256 1 2.256 2.228z" fill="#FFF"/></g></g></g></svg>
